public/assets/images/logo/01.svg

<svg width="131" height="43" viewBox="0 0 131 43" fill="none" xmlns="http://www.w3.org/2000/svg">
<path d="M19.0553 32.0149C18.2742 32.796 17.0079 32.796 16.2268 32.0149L11.563 27.3511C7.26395 23.052 0 26.091 0 32.1691V38.1001C0 39.2047 0.895431 40.1001 2 40.1001H33.2821C34.3866 40.1001 35.2821 39.2047 35.2821 38.1001V20.6165C35.2821 18.8347 33.1278 17.9424 31.8679 19.2023L19.0553 32.0149Z" fill="#0353E9"/>
<path d="M16.2268 8.08519C17.0079 7.30415 18.2742 7.30414 19.0553 8.08519L23.719 12.749C28.0181 17.0481 35.2821 14.0091 35.2821 7.93105V2C35.2821 0.895429 34.3866 0 33.2821 0H2C0.895429 0 0 0.895431 0 2V19.4836C0 21.2654 2.15428 22.1577 3.41421 20.8978L16.2268 8.08519Z" fill="#0353E9"/>
<path d="M55.6746 34.0498H48.6609V29.708H55.4148C57.3321 29.708 58.934 29.3617 60.2205 28.6689C61.5193 27.9639 62.4903 26.9062 63.1335 25.4961C63.7891 24.0859 64.1169 22.3232 64.1169 20.208C64.1169 18.0928 63.7953 16.3363 63.1521 14.9385C62.5089 13.5407 61.5502 12.4954 60.2761 11.8027C59.002 11.0977 57.4249 10.7451 55.5447 10.7451H48.5125V6.40332H55.8416C58.5876 6.40332 60.9441 6.95378 62.9109 8.05469C64.8901 9.1556 66.4115 10.7389 67.4753 12.8047C68.5391 14.8704 69.071 17.3382 69.071 20.208C69.071 23.0778 68.5391 25.5518 67.4753 27.6299C66.4115 29.6956 64.8777 31.2852 62.8738 32.3984C60.8822 33.4993 58.4825 34.0498 55.6746 34.0498ZM51.2957 6.40332V34.0498H46.2859V6.40332H51.2957ZM72.1697 34.0498V13.3057H77.0496V34.0498H72.1697ZM74.6189 10.3926C73.8396 10.3926 73.1716 10.1328 72.615 9.61328C72.0583 9.09375 71.78 8.46908 71.78 7.73926C71.78 6.99707 72.0583 6.36621 72.615 5.84668C73.1716 5.32715 73.8396 5.06738 74.6189 5.06738C75.3858 5.06738 76.0476 5.32715 76.6042 5.84668C77.1609 6.36621 77.4392 6.99089 77.4392 7.7207C77.4392 8.46289 77.1609 9.09375 76.6042 9.61328C76.0476 10.1328 75.3858 10.3926 74.6189 10.3926ZM89.6482 42.251C87.0134 42.251 84.9415 41.7376 83.4324 40.7109C81.9233 39.6966 80.9522 38.4658 80.5193 37.0186L84.8982 35.9424C85.0961 36.3506 85.3868 36.7526 85.7703 37.1484C86.1537 37.5566 86.6671 37.8906 87.3103 38.1504C87.9535 38.4225 88.7638 38.5586 89.741 38.5586C91.1264 38.5586 92.2706 38.2184 93.1736 37.5381C94.0889 36.8701 94.5466 35.7754 94.5466 34.2539V30.3389H94.2683C94.0333 30.8337 93.6746 31.347 93.1921 31.8789C92.7097 32.3984 92.0727 32.8438 91.281 33.2148C90.5017 33.5736 89.5121 33.7529 88.3123 33.7529C86.7289 33.7529 85.2878 33.3757 83.989 32.6211C82.7026 31.8665 81.6759 30.7409 80.9089 29.2441C80.1544 27.7474 79.7771 25.8734 79.7771 23.6221C79.7771 21.346 80.1544 19.4225 80.9089 17.8516C81.6759 16.2806 82.7087 15.0869 84.0076 14.2705C85.3064 13.4541 86.7537 13.0459 88.3494 13.0459C89.5616 13.0459 90.5636 13.25 91.3552 13.6582C92.1469 14.0664 92.7778 14.5612 93.2478 15.1426C93.7179 15.7116 94.0828 16.2435 94.3425 16.7383H94.6023V13.3057H99.3708V34.3838C99.3708 36.1527 98.9503 37.6185 98.1091 38.7812C97.268 39.944 96.1114 40.8099 94.6394 41.3789C93.1798 41.9603 91.516 42.251 89.6482 42.251ZM89.6853 29.9121C91.2439 29.9121 92.4438 29.3555 93.2849 28.2422C94.1384 27.1165 94.5652 25.5641 94.5652 23.585C94.5652 22.2738 94.3796 21.1296 94.0085 20.1523C93.6375 19.1751 93.087 18.4144 92.3572 17.8701C91.6274 17.3258 90.7367 17.0537 89.6853 17.0537C88.5968 17.0537 87.6876 17.3382 86.9578 17.9072C86.2279 18.4762 85.6775 19.2555 85.3064 20.2451C84.9477 21.2223 84.7683 22.3356 84.7683 23.585C84.7683 24.8467 84.9539 25.9538 85.325 26.9062C85.696 27.8587 86.2465 28.6009 86.9763 29.1328C87.7185 29.6523 88.6215 29.9121 89.6853 29.9121ZM102.97 34.0498V13.3057H107.85V34.0498H102.97ZM105.42 10.3926C104.64 10.3926 103.972 10.1328 103.416 9.61328C102.859 9.09375 102.581 8.46908 102.581 7.73926C102.581 6.99707 102.859 6.36621 103.416 5.84668C103.972 5.32715 104.64 5.06738 105.42 5.06738C106.187 5.06738 106.848 5.32715 107.405 5.84668C107.962 6.36621 108.24 6.99089 108.24 7.7207C108.24 8.46289 107.962 9.09375 107.405 9.61328C106.848 10.1328 106.187 10.3926 105.42 10.3926ZM115.458 13.3057L119.633 20.9873L123.882 13.3057H129.058L122.824 23.6963L129.17 34.0498H124.03L119.633 26.5908L115.309 34.0498H110.133L116.423 23.6963L110.281 13.3057H115.458Z" fill="white"/>
</svg>

<svg xmlns="http://www.w3.org/2000/svg" width="131" height="43" fill="none" viewBox="0 0 131 43"><path fill="#0353e9" d="M19.055 32.015a2 2 0 0 1-2.828 0l-4.664-4.664C7.263 23.052 0 26.091 0 32.17v5.93a2 2 0 0 0 2 2h31.282a2 2 0 0 0 2-2V20.616c0-1.781-2.154-2.674-3.414-1.414zm-2.828-23.93a2 2 0 0 1 2.828 0l4.664 4.664c4.3 4.3 11.563 1.26 11.563-4.818V2a2 2 0 0 0-2-2H2a2 2 0 0 0-2 2v17.484c0 1.781 2.154 2.674 3.414 1.414z"/><path fill="#fff" d="M55.675 34.05H48.66v-4.342h6.754q2.876 0 4.806-1.04 1.948-1.056 2.913-3.172.983-2.115.983-5.288t-.965-5.27-2.876-3.135q-1.911-1.058-4.731-1.058h-7.032V6.403h7.329q4.119 0 7.069 1.652 2.969 1.65 4.564 4.75 1.596 3.098 1.596 7.403t-1.596 7.422q-1.595 3.099-4.601 4.768-2.988 1.652-7.2 1.652m-4.38-27.647V34.05h-5.01V6.403zM72.17 34.05V13.306h4.88V34.05zm2.449-23.657q-1.17 0-2.004-.78T71.78 7.74q0-1.113.835-1.892.836-.78 2.004-.78 1.15 0 1.985.78t.835 1.874q0 1.113-.835 1.892a2.8 2.8 0 0 1-1.985.78m15.03 31.858q-3.953 0-6.217-1.54-2.264-1.521-2.913-3.692l4.38-1.077q.296.613.871 1.206.576.613 1.54 1.002.966.41 2.431.409 2.078 0 3.433-1.02 1.373-1.004 1.373-3.285V30.34h-.279q-.352.742-1.076 1.54-.724.78-1.911 1.336-1.17.538-2.969.538-2.374 0-4.323-1.132-1.93-1.132-3.08-3.377-1.132-2.245-1.132-5.622 0-3.415 1.132-5.77 1.15-2.357 3.099-3.581 1.948-1.225 4.341-1.225 1.82 0 3.006.612 1.188.612 1.893 1.485.705.853 1.094 1.595h.26v-3.432h4.769v21.078q0 2.653-1.262 4.397t-3.47 2.598q-2.19.872-4.99.872m.036-12.339q2.338 0 3.6-1.67 1.28-1.689 1.28-4.657 0-1.966-.556-3.433-.557-1.466-1.652-2.282t-2.672-.816q-1.632 0-2.727.853-1.094.855-1.652 2.338-.537 1.465-.538 3.34 0 1.893.557 3.321.556 1.43 1.651 2.227 1.114.78 2.71.78m13.285 4.138V13.306h4.88V34.05zm2.45-23.657q-1.17 0-2.004-.78t-.835-1.874q0-1.113.835-1.892.834-.78 2.004-.78 1.15 0 1.985.78t.835 1.874q0 1.113-.835 1.892a2.8 2.8 0 0 1-1.985.78m10.038 2.913 4.175 7.681 4.249-7.681h5.176l-6.234 10.39 6.346 10.354h-5.14l-4.397-7.46-4.324 7.46h-5.176l6.29-10.354-6.142-10.39z"/></svg>
